X: 12201
T: The King shall enjoy
%R: reel
B: James Oswald "The Caledonian Pocket Companion" v.1 b.1 p.20 #1
Z: 2020 John Chambers <jc:trillian.mit.edu>
N: The rhythms at phrase boundariess are rather odd; not fixed.
M: C
L: 1/8
K: D
"_Andante" z | z4 A2A2 |\
d2d2 efge | Tf2(ef) g2B2 |\
c2(de) Te3d | d3 :: f edcd |\
e3f edcd | e3f edcd |\
e2(dc) TB4 |
A2fg abag |\
f2ed efga | f2ef g2B2 |\
Tc2de Te3d | d2 :: A |\
A(B/c/) dd d2 c(e/f/) | (a/g/)(f/e/) (g/f/)(e/d/) cd zc |
d(=c/B/) cc TcB zd | g(f/e/) fe d(e/B/) Tc>d |\
d3 :: z z2 zf | eaed c/B/A2f |\
daed c/B/A2f |
^gf/e/ aa ab/f/ ^g>a |\
a2zd cBcA | dagf {f}g>e e/d/c/B/ |\
Aagf b>a (g/f/)(e/d/) | g(f/e/) fe de/B/ Tc2 |\
d3 :|


